X:1
T:Melchior Vulpius 1570 - 1615
T:Pater noster
%%score [ 1 2 3 4 ]
L:1/8
M:4/4
K:C
V:1 treble nm="Cantus" snm="Cantus"
V:2 treble nm="Altus" snm="Altus"
V:3 treble nm="Tenor" snm="Tenor"
V:4 treble nm="Bassus" snm="Bassus"
V:1
"^;" x8 | E12 E4 | E16 | E8 E16 | E4 E4 A6 B2 x12 | c2 A2 c6 B2 B6 x8 | A2 A8 ^G4 A4 | E4 x14 | %8
w: |Pa- ter|no-|ster, qui|es in c *||* * * lis,|qui|
w: ||||||||
 E6 F2 G2 E2 G2 A2 x14 | B4 c4 B8 | A4 E4 E6 F2 x2 | G2 E2 G6 F2 E2 D2 x2 | E4 E4 E8 x4 | %13
w: es * * * * *|* in c-|lis, * * *|||
w: ||* qui es *||* in c-|
 E8 z4 E4 | C4 D4 E8 | E8 z4 B4 | c2 A2 B4 A2 A4 ^G2 x4 | A4 E4 z8 | z4 B4 c2 A2 B4 | %19
w: ||* San-|cti- fi- ce- tur no- men|tu- um,||
w: lis, qui|es in c-|lis, *|||San- cti- fi- ce-|
 A2 A4 ^G2 A4 E4 | A4 A2 A4 ^G^F G4 | A8 z8 | z4 c4 B2 G2 A2 B2 | c4 A4 B4 z4 x4 | %24
w: |no- men tu- * * *|um,|Ad- ve * * *|* ni- at,|
w: tur no- men tu- um,|||||
 z4 c4 B2 G2 A2 B2 x4 | c4 d4 e4 e8 | d4 c8 x8 | B4 B8 B4 x4 | B4 c8 B2 A2 x12 | c12 B2 A2 x2 | %30
w: |* * * re-|gnum tu-|um. Fi- at|vo- lun * *||
w: ad- ve * * *|* ni- at *|||||
 B4 c4 B8 x2 | A4 A4 G4 F4 | E4 E6 D2 D2 CD | E4 E8 D4 | C16 x4 | B,8 z8 x4 | z16 x12 | z16 | %38
w: * tas tu-|a si- cut in|c- lo * * * *|* & in|ter-|ra,|||
w: ||||||||
 z4 E4 E4 E4 | c12 B2 A2 | ^G8 A8 |"^(  )" G4 G8 G4 | E16 | E4 A8 G4 | F16 | x16 |] %46
w: si- cut in|c- * *||lo & in|ter-|ra & in|ter-||
w: ||||||||
[M:4/4]"^;""^K" x20 |"^Secunda pars" z16 | z16 | z16 | z16 | z16 | z16 | z16 | z2 A2 A2 A2 A4 A4 | %55
w: ||||||||Da no- bis ho- di-|
w: |||||||||
 ^G2 B2 B2 B2 B4 c4 x2 | B2 ^G2 G2 G2 G4 A4 x2 | ^G4 A4 B4 B6 x4 | c2 A4 B8 B6 | B2 c4 c6 BA B4 | %60
w: e, * * * * *||* Et di- mit-|te no- bis de-|bi- ta no. * * *|
w: * da no- bis ho- di-|e, da no- bis ho- di-|e, * * *|||
 c4 e2 ee d2 B2 c2 A2 | ^G4 c2 cc B2 B2 A2 A2 | ^G2 A4 A2 x8 |"^(  )" G3 G G4 F8 | E8 z2 E4 A2 | %65
w: stra, si- cut & nos di- mit- ti-|mus, si- cut & nos di- mit- ti-|mus de- bi-|to- ri- bus no-|stris. Et ne|
w: |||||
 G2 E2 A4 ^G2 G4 A2 x4 | B2 B2 c4 B2 ^G4 A2 | B2 B2 c4 B4 c8 | B4 A6 G2 x4 | F8 E4 z2 B2 | %70
w: nos in- du- cas, * *|* * * * & ne|nos in- du- cas in-|ten- ta- ti-|o- nem. Sed|
w: * * * * & ne|nos in- du- cas, * *||||
 c2 c2 B4 A2 A2 B2 B2 | c4 B4 z2 A2 ^G2 G2 x2 | A4 E4 z2 A2"^(  )" G2 G2 | G8 G2 G2 F2 F2 x | %74
w: li- be- ra nos, * * *||* * a ma- lo,|A- men, * * *|
w: * * * * sed li- be-|ra nos, sed li- be-|ra nos, * * *|* * a ma- lo|
 E8 x8- x | x6 x2 z2 E4 A2 | G2 E2 A4 ^G2 G4 A2 x4 | B2 B2 c4 B2 ^G4 A2 x4 | B2 B2 c4 B4 c8 | %79
w: |Et ne|nos in- du- cas, * *||* * * * in-|
w: A- men.||* * * * & ne|nos in- du- cas, & ne|nos in- du- cas *|
 B4 A6"^(  )" G2 F8 | E4 z2 B2 c2 c2 B4 | A2 A2 B2 B2 c4 B4 | z2 A2 ^G2 G2 x10 | %83
w: ten- ta- ti- o-|nem. Sed li- be- ra|nos, * * * * *||
w: ||* sed li- be- ra nos,|sed li- be-|
 c4 E4 z2 A2"^(  )" G2 G2 x14 | G8 G2 G2 F2 F2 | E8 E2 ^G2 A2 B2 | c4 B2 B2 c2 B2 A4 | x4- x8 x4 |] %88
w: * * a ma- lo.|A- men, * * *||||
w: ra nos * * *|* * a ma- lo|A- men, a ma- lo|A- men, a ma- lo- A-||
V:2
"^;" x8 | z16 | B,12 B,4 | C6 B,2 A,2 B,2 C8 x4 | B,2 A,2 B,8 C6 x10 | D2 E8 E,16 | %6
w: ||Pa- ter|no * * * *|* * * ster,|* * qui|
w: ||||||
 E,4 E,4 A,6 B,2 x2 | C2 A,2 C6 B,2 B,6 | A,2 A,8 ^G,4 A,16 | z4 E4 E4 C4 | B,8 C4 C4 x2 | %11
w: es in c- *||* * * lis,|||
w: |||qui es in|c- lis, qui|
 A,4 A,6 ^G,F, G,4 x2 | A,6 B,2 C2 B,A, B,4 x4 | A,4 E4 F2 D2 E4 | A,2 A4 G2 F4 E4 | %15
w: ||* San- cti- fi- ce-|tur no- men tu- um,|
w: es in * * *|c- * * * * *|lis, * * * *||
 z4 z2 B,2 C2 A,2 B,4 | A,2 A,4 ^G,2 A,4 E8 | E8 E4 x4 | E16 | E8 z8 | z4 A4 G2 E2 F2 G2 | %21
w: ||no- men|tu-|um,|Ad- ve * * *|
w: san- cti- fi- ce-|tur no- men tu- um,|||||
 A4 A,4 E4 z4 | z4 A4 G2 E2 F2 G2 | A4 F4 E4 G8 | G4 E8 x8 | E6 F2"^(  )" G4 G4 x4 | G4 G4 A12 | %27
w: * ni- at,||* * * re-|gnum tu-|um. * * Fi-|at vo- lun-|
w: |ad- ve * * *|* ni- at *||||
 G2 F2 G4 A4 G2 E2 x4 | A6 ^G^F G4 A4 x12 | E4 E4 D2 C2 B,4 x2 | B,4 A,8 B,4 x2 | C8 B,4 x4 | %32
w: * * * tas tu *|* * * * a,|si- cut * * *|in c- lo|& in|
w: |||||
 A,16 | ^G,4 B,8 B,4 | B,4 C8 B,2 A,2 x4 | C12 B,2 A,2 x4 | B,4 C4 B,8 x12 | A,4 A4 G4 F4 | %38
w: ter-|ra, Fi- at|vo- lun- * *||* tas tu-|a, si- cut in|
w: ||||||
 E4 E6 D2 D2 CD | E4 E8 D4 | C6 B,A, B,8 | C4 F8 E4 | D16 | x16 |[M:4/4]"^;" x16 | z16 |] z8 E12 | %47
w: c- lo * * * *|* & in|ter- * * *|ra, & in|ter-||||Pa-|
w: |||||||||
 E4 G6 F2 E2 D2 | C4 A,4 A4 G2 F2 | E2 D2 C4 C4 x4 | D2 E2 F2 D2 E6 D2 | C2 B,2 A,6 ^G,^F, G,4 | %52
w: nem no- * * *|* strum quo- ti *|* * * di-|a * * * * *||
w: |||||
 A,2 E2 E2 E2 E4 F4 | E2 ^G2 G2 G2 G4 A4 | ^G2 E2 E2 E2 E4 E4 | E4 E4 G4 G6 | G2 ^F4 G8 z4 | %57
w: num, da no- bis ho- di-|e, * * * * *||* Et di- mit-|te no- bis|
w: |* da no- bis ho- di-|e, da no- bis ho- di-|e, * * *||
 G6 G2 F4 G8 x2 | G4 G2 GG G2 G2 E2 D2 x4 | E4 G2 GG G2 G2 E2 D2 x2 | E2 E4 F2 x8 | D3 D E4 D8 | %62
w: de- bi- ta no-|stra, si- cut & nos di- mit- ti-|mus, * * * * * * *|* de- bi-|to- ri- bus no-|
w: ||* si- cut & nos di- mit- ti-|mus * *||
 B,2 B,4 ^C2 D2 E4 E2 | E2 E2 F4 E8 | z2 E4 A2 G2 E4 E2 | G2 G2 A4 ^G4 A8 |"^(  )" G4 F6 E2 x4 | %67
w: stris. Et ne nos, & ne|nos in- du- cas,||* in- du- cas in-|ten- ta- ti-|
w: ||& ne nos in- du-|cas, * * * *||
 D6 A,2 C2 B,A, B,4 x4 | E8 z2 A2 ^G2 G2 | A4 E2 E2 E2 E2 E4 | E2 E2 E2 E2 E4 E2 E2 | %71
w: o- * * * * *|nem. Sed li- be-|ra nos, * * * *|* * * * * * a|
w: ||* * sed li- be- ra|nos, sed li- be- ra nos *|
 E2 E2 D4 E4 D2 D4 | C2 B,4 C4 C6 | B,A, B,2 ^C2 D2 E4 E2 E2 x | E2 F4 E8 z2 x | %75
w: ma- lo, A- men, * *|* * * Et|* * * ne nos, & ne nos|in- du- cas,|
w: * * * * a ma-|lo A- men. *|||
 E4 A2 G2 E4 E2 x2 | G2 G2 A4 ^G4 A8 |"^(  )" G4 F6 E2 D6 x2 | A,2 C2 B,A, B,4 E8 x2 | %79
w: * * * & ne|nos in- du- cas in-|ten- ta- ti- o-|* * * * * nem.|
w: & ne nos * *||||
 z2 A2 ^G2 G2 A4 E2 E2 x4 | E2 E2 E4 x8 | E2 E2 E2 E2 E4 E2 E2 | E2 E2 D4 E4 D2 D4 | %83
w: Sed li- be- ra nos, *||* * * * * * a|ma- lo A- men, * *|
w: * * * * * sed|li- be- ra|nos, sed li- be- ra nos *|* * * * a ma-|
 C2 B,4 C2 E2 E2 E2 E16 | x4- x8 x4 | x16 | x16 | x16 |] %88
w: |||||
w: lo A- men, a ma- lo A-|||||
V:3
"^;""^S" x8 | z16 | ^G,12 G,4 | A,6 B,2 C2 B,2 A,8 x4 | ^G,2 ^F,2 G,8 A,16 | z16 x10 | z16 x2 | %7
w: ||Pa- ter|no * * * *|* * * ster,|||
w: |||||||
 z16 x2 | z16 x14 | z16 | E,16 x2 | E,4 E,4 A,6 B,2 x2 | C2 A,2 C6 B,2 B,6 x2 | A,2 A,8 ^G,4 x2 | %14
w: |||qui|es in e- *|||
w: |||||||
 A,8 z8 | z8 z4 B,4 | C2 A,2 B,4 A,2 A,4 ^G,2 x4 | A,4 E8 B,4 | C2 A,2 B,4 A,2 C4 B,2 | %19
w: lis,|San-|cti- fi- ce- tur no- men|tu- um, *||
w: |||* * san-|cti- fi- ce- tur no- men|
 C6 B,A, B,8 | A,4 C4 B,2"^(  )" G,2 A,2 B,2 | C4 A,4 B,4 z4 | z4 C4 B,2 G,2 A,2 B,2 | %23
w: |* Ad- ve * * *|* ni- at,||
w: tui- * * *|um, * * * * *||ad- ve * * *|
 C4 A,4 B,4 z4 x4 | z8 z4 C8 | B,4 A,8 x8 | ^G,8 z4 E4 x4 | E4 E4 F12 | E2 D2 E4 F4 E16 | %29
w: |re-|gnum tu-|um. Fi-|at vo- lun-|* * * tas tu-|
w: * ni- at,||||||
 A,4 C4 C4 A,6 | ^G,^F, G,4 A,8"^(  )" =G,4 | G,8 G,4 x4 | E,16 | E,6"^(  )" F,2"^(  )" G,4 G,4 | %34
w: a, si- cut in-|* * * c- lo|& in|ter-|ra, * * Fi-|
w: |||||
 G,4 G,4 A,12 | G,2 F,2 G,4 A,4 G,2 E,2 x4 | A,6 ^G,^F, G,4 A,4 x12 | E4 E4 D2 C2 x4 | %38
w: at vo- lun-|* * * tas tu *|* * * * a,|si- cut * *|
w: ||||
 B,4 B,4 A,8 | B,4 C8 B,4 | A,2 E,2 A,6 ^G,^F, G,4 | A,4 C8 C4 | A,16 | x16 | %44
w: * in c-|lo & in|ter * * * * *|ra, & in|ter-||
w: ||||||
[M:4/4]"^;""^K""^S" x16 | z16 |] z16 x4 | z16 | z16 | z16 | z16 | z16 | z2 ^C2 C2 C2 C4 D4 | %53
w: ||||||||Da no- bis ho- di-|
w: |||||||||
 B,2 E2 E2 E2 E4 A,4 | E2 B,2 B,2 B,2 B,4 C4 | B,4 ^C4 D4 E6 | E2 D4 D4 D6 x2 | D2 E4 C8 D8 | %58
w: e, * * * * *||* Et di- mit-|te no- bis de-|bi ta no- *|
w: * da no- bis ho- di-|e, da no- bis ho- di-|e, * * *|||
 E4 C2 CC B,2 G,2 A,2 F,2 x4 | E,4 E2 EE D2 E2 C2 A,2 x2 | B,2 C4 C2 x8 | B,3 B, C4 A,8 | %62
w: stra, si- cut & nos di- mit- ti-|mus, * * * * * * *|* de- bi-|to- ri- bus no-|
w: |* si- cut & nos di- mit- ti-|mus * *||
 ^G,2 G,4 A,2 B,4 C4 | B,3 C D4 B,2 B,4 ^C2 | D2 E2 E4 E2 B,4 ^C2 | D2 E2 E4 E4 E8 | E4 C6 C2 x4 | %67
w: stris. Et ne nos in-|du- * * cas, * *||* * * * in-|ten- ta- ti-|
w: |* * * * & ne|nos in- du- cas, & ne|nos in- du- cas *||
 A,4 A,6 ^G,2 G,2 ^F,G, x4 | A,4 z2 B,2 C2 C2 B,4 | A,2 A,2 B,2 B,2 C4 B,2 B,2 | %70
w: o- nem. * * * *|* Sed li- be- ra|nos, * * * * * sed|
w: ||* sed li- be- ra nos, *|
 C2 C2 B,4 A,2 C2 B,2 C2 | B,G, C4 B,2 C2 C2 A,2 B,4 | A,4 ^G,2 A,4 A,6 | %73
w: li- be- ra nos a ma- lo|A * * * men, * * *|* * * Et|
w: |* * * * * a ma- lo|A- * men, *|
 ^G,^F, G,2 A,2 B,4 C4 B,3 | C D4 B,2 B,4 ^C2 D2 E2 | E4 E2 B,4 ^C2 x4 | D2 E2 E4 E4 E8 | %77
w: * * * ne nos in- du-|* * cas, * * * *||* * * * in-|
w: |* * * & ne nos in-|du- cas, & ne|nos in- du- cas *|
 E4 C6 C2 A,4 x4 | A,6 ^G,2 G,2 ^F,G, A,4 x4 | z2 B,2 C2 C2 B,4 A,2 A,2 x4 | %80
w: ten- ta- ti- o-|nem, * * * * *|Sed li- be- ra nos, *|
w: ||* * * * * sed|
 B,2 B,2 C4 B,2 B,2 x4 | C2 C2 B,4 A,2 C2 B,2 C2 | B,G, C4 B,2 C2 C2 A,2 B,4 | %83
w: |* * * * a ma- lo|A * * * men, * * *|
w: li- be- ra nos, sed|li- be- ra nos * * *|* * * * * a ma- lo|
 A,4 ^G,2 A,2 B,2 C2 B,2 A,4 x12 | ^G,2 G,2 A,2 B,2 C4 x4- | x8 x4 x4 | x16 | x16 |] %88
w: |||||
w: A- * * * * men, a|ma- lo A * * *||||
V:4
"^;" x8 | z16 | E,12 E,4 | A,,16 x8 | E,16 x12 | z16 x10 | z16 x2 | z16 x2 | z8 E,16 x6 | %9
w: ||Pa- ter|no-|ster,||||qui|
w: |||||||||
 E,4 E,4 A,6 B,2 | C2 A,2 C6 B,2 B,6 | A,2 A,8 ^G,4 A,4 | A,,4 A,,4 A,,4 E,8 | F,8 E,8 | z16 | %15
w: es in c- *||* * * lis,||||
w: |||qui es in c-|* lis,||
 z4 E,4 F,2 D,2 E,4 | A,,2 A,4 ^G,2 A,4 E,2 E,2 x4 | F,2 D,2 E,4 A,,2 A,,4 ^G,,2 | %18
w: San- cti- fi- ce-|tur no- men tu- um, san-|cti- fi- ce- tur no- men|
w: |||
 A,,4 E,4 z2 A,4 ^G,2 | A,8 E,8 | z4 A,4 G,2 E,2 F,2 G,2 | A,4 A,,4 E,4 z4 | %22
w: tu- um, no- men|tu- um,|Ad- ve * * *|* ni- at,|
w: ||||
 z4 A,4 G,2 E,2 F,2 G,2 | A,4 A,,4 E,4 z4 x4 | z8 z4 C,8 | G,,4 A,,8 x8 | E,16 x4 | z16 x4 | %28
w: ||re-|gnum tu-|um.||
w: ad- ve * * *|* ni- at,|||||
 z16 x12 | z16 x2 | z4 A,,4 C,4 D,4 x2 | E,8 F,8 | E,4 C,8 G,,4 | A,,16 | E,,8 E,8 x4 | %35
w: ||si- cut in|c- *|lo & in|ter-|ra, Fi-|
w: |||||||
 E,4 E,4 F,12 | E,2 D,2 E,4 F,4 E,16 | A,,4 A,,4 C,4 D,4 | E,8 F,8 | E,4 C,8 G,,4 | A,,8 E,8 | %41
w: at vo- lun-|* * * tas tu-|a, si- cut in|c- *|lo & in|ter- *|
w: ||||||
 A,,4 F,8 C,4 | D,16 | x16 |[M:4/4]"^;" x16 | E,12 E,4 |] G,6 F,2 E,2 D,2 C,4 x4 | %47
w: ra, & in|ter-|||Pa- nem|no- * * * *|
w: ||||||
 A,,4 A,4 G,2 F,2 E,2 D,2 | C,4 C,4 D,2 E,2 F,2 D,2 | E,8 A,,4 A,4 | G,4 F,4 E,2 D,2 C,2 B,,2 | %51
w: strum quo- ti * * *|* di- a * * *|* num, quo-|ti- di- a * * *|
w: ||||
 A,,2 B,,2 C,2 D,2 B,,8 | A,,2 A,2 A,2 A,2 A,4 D,4 | E,8 z8 | z2 E,2 E,2 E,2 E,4 A,,4 | %55
w: |num, da no- bis ho- di-|e,||
w: |||da no- bis ho- di-|
 E,4 A,4 G,4 E,6 | C,2 D,4 G,,4 G,6 x2 | G,2 E,4 A,8 G,8 | C,8 z8 x4 | %59
w: * Et di- mit-|te no- bis de-|bi- ta no- *|stra,|
w: e, * * *||||
 z4 C,2 C,C, G,2 E,2 A,2 F,2 x2 | E,2 A,4 F,2 x8 | G,3 G, C,4 D,8 | E,2 E,4 A,2 G,2 E,2 A,4 | %63
w: si- cut & nos di- mit- ti-|mus de- bi-|to- ri- bus no-|stris. Et ne nos in- du-|
w: ||||
 E,4 z4 E,6 A,2 | G,2 E,2 A,4 E,2 E,4 A,2 | G,2 E,2 A,4 E,4 A,8 | E,4 F,6 C,2 x4 | D,8 E,8 x4 | %68
w: cas, * *||* * * * in-|ten- ta- ti-|o- nem.|
w: * & ne|nos in- du- cas, & ne|nos in- du- cas *|||
 z2 A,2 ^G,2 G,2 A,4 E,4 | z2 A,2 ^G,2 G,2 A,4 E,2 E,2 | A,2 A,2 ^G,4 A,2 A,,2 E,2 C,2 | %71
w: Sed li- be- ra nos,||* * * * a ma- lo|
w: |sed li- be- ra nos, sed|li- be- ra nos * * *|
 E,3 F, G,4 C,2 C,2 D,2 D,2 x2 | E,8 A,,8 | E,6 A,2 G,2 E,2 A,4 x | E,4 z4 E,6 A,2 x | %75
w: A- * * men, a ma- lo|A- men,|Et ne nos in du-|cas, * *|
w: |||* & ne|
 G,2 E,2 A,4 E,2 E,4 A,2 | G,2 E,2 A,4 E,4 A,8 | E,4 F,6 C,2 D,8 | E,8 z2 A,2 ^G,2 G,2 x4 | %79
w: |* * * * in-|ten- ta- ti- o-|nem, Sed li- be-|
w: nos in- du- cas, & ne|nos in- du- cas *|||
 A,4 E,4 z2 A,2 ^G,2 G,2 x4 | A,4 E,2 E,2 x8 | A,2 A,2 ^G,4 A,2 A,,2 E,2 C,2 | %82
w: ra nos, * * *||* * * * a ma- lo|
w: * * sed li- be-|ra nos, sed|li- be- ra nos * * *|
 E,3 F, G,4 C,2 C,2 D,2 D,2 x2 | E,8 A,,2 E,2 A,2 ^G,2 x14 | A,4 E,2 E,2 A,,2 ^G,,2 A,,4 | %85
w: A- * * men, a ma- lo|A- men, * * *||
w: |* * a ma- lo|A- men, a ma- lo A-|
 x4- x8 x4 | x16 | x16 |] %88
w: |||
w: |||

